markets/USDC.svg

<svg width="42" height="42" viewBox="0 0 42 42" fill="none" xmlns="http://www.w3.org/2000/svg">
<g clip-path="url(#clip0_7277_55564)">
<path d="M21 42C32.6376 42 42 32.6376 42 21C42 9.36243 32.6376 0 21 0C9.36243 0 0 9.36243 0 21C0 32.6376 9.36243 42 21 42Z" fill="#2775CA"/>
<path d="M26.775 24.3248C26.775 21.2624 24.9375 20.2124 21.2625 19.7749C18.6375 19.4249 18.1125 18.7249 18.1125 17.4998C18.1125 16.2747 18.9875 15.4874 20.7375 15.4874C22.3125 15.4874 23.1875 16.0124 23.625 17.3249C23.7125 17.5874 23.9751 17.7623 24.2376 17.7623H25.6374C25.9875 17.7623 26.25 17.4998 26.25 17.1499V17.0624C25.8999 15.1373 24.3249 13.6499 22.3125 13.4749V11.3749C22.3125 11.0249 22.05 10.7624 21.6126 10.6748H20.3C19.95 10.6748 19.6875 10.9373 19.5999 11.3749V13.3874C16.9749 13.7374 15.3125 15.4874 15.3125 17.6749C15.3125 20.5624 17.0625 21.6998 20.7375 22.1374C23.1875 22.5749 23.9751 23.0999 23.9751 24.4999C23.9751 25.9 22.7499 26.8624 21.0875 26.8624C18.8124 26.8624 18.0249 25.8998 17.7624 24.5873C17.675 24.2374 17.4125 24.0623 17.15 24.0623H15.6624C15.3125 24.0623 15.05 24.3248 15.05 24.6749V24.7624C15.3999 26.9498 16.8 28.5248 19.6875 28.9624V31.0624C19.6875 31.4123 19.95 31.6748 20.3874 31.7624H21.6999C22.05 31.7624 22.3125 31.4999 22.4001 31.0624V28.9624C25.0251 28.5248 26.775 26.6873 26.775 24.3248V24.3248Z" fill="white"/>
<path d="M16.5375 33.5124C9.7125 31.0625 6.21243 23.45 8.75007 16.7124C10.0626 13.0374 12.9501 10.2374 16.5375 8.92493C16.8876 8.75 17.0625 8.4875 17.0625 8.04986V6.82493C17.0625 6.47486 16.8876 6.21236 16.5375 6.125C16.4499 6.125 16.275 6.125 16.1874 6.21236C7.875 8.83736 3.32493 17.675 5.94993 25.9874C7.52493 30.8874 11.2875 34.6499 16.1874 36.2249C16.5375 36.3999 16.8876 36.2249 16.9749 35.8749C17.0625 35.7875 17.0625 35.6999 17.0625 35.525V34.2999C17.0625 34.0374 16.8 33.6875 16.5375 33.5124ZM25.8126 6.21236C25.4625 6.03743 25.1124 6.21236 25.0251 6.56243C24.9375 6.65 24.9375 6.73736 24.9375 6.9125V8.13743C24.9375 8.4875 25.2 8.83736 25.4625 9.0125C32.2875 11.4624 35.7876 19.0749 33.2499 25.8125C31.9374 29.4875 29.0499 32.2874 25.4625 33.5999C25.1124 33.7749 24.9375 34.0374 24.9375 34.475V35.6999C24.9375 36.05 25.1124 36.3125 25.4625 36.3999C25.5501 36.3999 25.725 36.3999 25.8126 36.3125C34.125 33.6875 38.6751 24.8499 36.0501 16.5374C34.4751 11.5499 30.6249 7.78736 25.8126 6.21236V6.21236Z" fill="white"/>
</g>
<defs>
<clipPath id="clip0_7277_55564">
<rect width="42" height="42" fill="white"/>
</clipPath>
</defs>
</svg>

<svg xmlns="http://www.w3.org/2000/svg" width="42" height="42" fill="none"><g clip-path="url(#a)"><path fill="#2775CA" d="M21 42c11.638 0 21-9.362 21-21S32.638 0 21 0A20.95 20.95 0 0 0 0 21c0 11.638 9.362 21 21 21Z"/><path fill="#fff" d="M26.775 24.325c0-3.063-1.837-4.113-5.512-4.55-2.626-.35-3.15-1.05-3.15-2.275 0-1.225.875-2.013 2.625-2.013 1.575 0 2.45.525 2.887 1.838.087.262.35.437.613.437h1.4c.35 0 .612-.262.612-.612v-.088a4.372 4.372 0 0 0-3.938-3.587v-2.1c0-.35-.262-.613-.7-.7H20.3c-.35 0-.613.262-.7.7v2.012c-2.625.35-4.288 2.1-4.288 4.288 0 2.887 1.75 4.025 5.426 4.462 2.45.438 3.237.963 3.237 2.363s-1.225 2.362-2.888 2.362c-2.275 0-3.062-.962-3.325-2.275-.087-.35-.35-.525-.612-.525h-1.488a.598.598 0 0 0-.612.613v.087c.35 2.188 1.75 3.763 4.637 4.2v2.1c0 .35.263.613.7.7H21.7c.35 0 .613-.262.7-.7v-2.1c2.625-.437 4.375-2.275 4.375-4.637Z"/><path fill="#fff" d="M16.538 33.512c-6.825-2.45-10.326-10.062-7.788-16.8 1.313-3.675 4.2-6.475 7.788-7.787.35-.175.524-.438.524-.875V6.825c0-.35-.174-.613-.524-.7-.088 0-.263 0-.35.087C7.874 8.837 3.324 17.675 5.95 25.987a15.74 15.74 0 0 0 10.237 10.238c.35.175.7 0 .788-.35.087-.087.087-.175.087-.35V34.3c0-.263-.262-.612-.524-.788Zm9.275-27.3c-.35-.175-.7 0-.788.35-.087.088-.087.175-.087.35v1.225c0 .35.262.7.524.875 6.826 2.45 10.326 10.063 7.788 16.8-1.313 3.675-4.2 6.475-7.788 7.788-.35.175-.524.437-.524.875V35.7c0 .35.174.612.524.7.088 0 .263 0 .35-.087 8.313-2.626 12.863-11.463 10.238-19.776-1.575-4.987-5.425-8.75-10.237-10.325Z"/></g><defs><clipPath id="a"><path fill="#fff" d="M0 0h42v42H0z"/></clipPath></defs></svg>
